icons/Weather/haze-fill.svg

<svg viewBox="0 0 24 24" xmlns="http://www.w3.org/2000/svg"><path d="M6.08296 13C6.0284 12.6748 6 12.3407 6 12C6 8.68629 8.68629 6 12 6C15.3137 6 18 8.68629 18 12C18 12.3407 17.9716 12.6748 17.917 13H6.08296ZM2 15H12V17H2V15ZM14 15H22V17H14V15ZM16 19H20V21H16V19ZM4 19H14V21H4V19ZM11 1H13V4H11V1ZM3.51472 4.92893L4.92893 3.51472L7.05025 5.63604L5.63604 7.05025L3.51472 4.92893ZM19.0711 3.51472L20.4853 4.92893L18.364 7.05025L16.9497 5.63604L19.0711 3.51472ZM23 11V13H20V11H23ZM4 11V13H1V11H4Z"/></svg>

<svg xmlns="http://www.w3.org/2000/svg" viewBox="0 0 24 24">
    <g>
        <path fill="none" d="M0 0h24v24H0z"/>
        <path d="M6.083 13a6 6 0 1 1 11.834 0H6.083zM2 15h10v2H2v-2zm12 0h8v2h-8v-2zm2 4h4v2h-4v-2zM4 19h10v2H4v-2zm7-18h2v3h-2V1zM3.515 4.929l1.414-1.414L7.05 5.636 5.636 7.05 3.515 4.93zM19.07 3.515l1.414 1.414-2.121 2.121-1.414-1.414 2.121-2.121zM23 11v2h-3v-2h3zM4 11v2H1v-2h3z"/>
    </g>
</svg>
